X:1
T:Moonlight Sonata I
T:Moonlight Sonata I
T:Ludwig van Beethoven
T:Sonata no.14 Op.27
C:Ludwig van Beethoven
%%score { ( 1 3 ) | ( 2 4 ) }
L:1/8
Q:1/4=45
M:4/4
K:E
V:1 treble nm="Piano" snm="Pno."
V:3 treble 
V:2 bass 
V:4 bass 
V:1
"^ =""^Adagio Sostenuto" (3G,CE (3G,CE (3G,CE (3G,CE | (3G,CE (3G,CE (3G,CE (3G,CE | %2
 (3A,CE (3A,CE (3A,=DF (3A,=DF | (3G,^B,F (3G,CE (3G,CD (3F,^B,D | %4
[I:staff +1] (3E,G,C[I:staff -1] (3G,CE (3G,CE (3G,CE | (3G,DF (3G,DF (3G,DF (3G,DF | %6
 (3G,CE (3G,CE (3A,CF (3A,CF | (3G,B,E (3G,B,E (3A,B,D (3A,B,D | (3G,B,E (3G,B,E (3G,B,E (3G,B,E | %9
 (3=G,B,E (3G,B,E (3G,B,E (3G,B,E | (3=G,B,=F (3G,B,F (3G,B,F (3G,B,F | %11
 (3=G,=CE (3G,B,E (3G,^CE (3F,CE | (3F,B,=D (3F,B,D (3=G,B,C (3E,B,C | %13
 (3F,B,=D (3F,B,D (3F,^A,C (3F,A,C | (3B,=DF (3B,DF (3B,^DF (3B,DF | %15
!<(! (3B,E=G (3B,EG!<)!!>(! (3B,EG (3B,EG!>)! | (3B,DF (3B,DF (3B,DF (3B,DF | %17
!<(! (3B,E=G (3B,EG!<)!!>(! (3B,EG (3B,EG!>)! | (3B,DF (3B,DF (3B,=D^E (3B,DE | %19
 (3B,CG (3B,CG (3A,CF (3A,CF | (3=G,B,=D (3G,B,D (3F,A,^D (3F,A,D | %21
[K:bass] (3C,F,A, (3C,F,A, (3C,F,G, (3C,^E,G, | (3F,A,C[K:treble] (3A,CF (3CFA (3CFA | %23
 (3CGB (3CGB (3CGB (3CGB | (3CFA!<(! (3CFA (3^B,FA (3CFA!<)! | (3DFG (3DFG (3DFG (3DFG | %26
 (3EGc (3EGc!>(! (3DFA (3CE^A!>)! |!p! (3^B^B,D (3GB,D (3AB,D (3FB,D | %28
 (3z ^B,D!<(![I:staff +1] (3G,[I:staff -1]B,D[I:staff +1] (3A,!<)!!>(![I:staff -1]B,D[I:staff +1] (3F,!>)![I:staff -1]B,D | %29
[I:staff +1] (3E,[I:staff -1]EG!<(! (3cEG (3e!<)!!>(!EG (3c!>)!EG | %30
 (3z[I:staff +1] E,G,!<(! (3CE,G, (3E!<)!!>(!E,G, (3C!>)!E,G, | %31
"_poco cresc." (3D,A,F,[I:staff -1] (3^B,A,D (3B,FD (3AF^B | %32
[I:staff +1] (3E,CG,[I:staff -1] (3ECG (3EcG (3ecG | (3C^^FE (3^AFc (3Aec (3^^fe^a | %34
 (3^F^B=A (3dBf (3daf (3^bad' | (3^bfa (3df^B (3dAB (3FAD | %36
 (3F^B,D[K:bass] (3A,^B,F, (3A,D,F, (3C,F,A, | (3^B,,F,G, (3A,G,F, (3D,F,A, (3C,F,A, | %38
 (3^B,,F,G, (3A,G,F, (3=D,F,A, (3C,F,A, |!>(! (3^B,,F,G, (3A,G,F, (3C,E,C (3C,E,C!>)! | %40
 (3D,A,C (3D,A,C (3D,G,^B, (3D,F,B, |!pp! (3E,G,C[K:treble] (3G,CE (3G,CE (3G,CE | %42
 (3G,DF (3G,DF (3G,DF (3G,DF | (3G,CE (3G,CE (3A,CF (3A,CF | (3G,B,E (3G,B,E (3A,B,D (3A,B,D | %45
 (3G,B,E (3B,EG (3B,EG (3B,EG | (3B,FA (3B,FA (3B,FA (3B,FA | %47
!<(! (3B,EG (3B,EG!<)!!>(! (3^B,FG (3CFG!>)! |!p! (3DFG (3DFG (3EGc (3EGc | %49
 (3=DFA (3DFA (3^B,FG (3B,FG | (3CEG (3CEG (3C^EG (3CEG |!<(! (3CFA (3CFA!<)!!>(! (3CFA (3CFA!>)! | %52
 (3C^EG (3CEG (3CEG (3CEG |!<(! (3CFA (3CFA!<)!!>(! (3CFA (3CFA!>)! | (3C^EG (3CEG (3CFA (3CFA | %55
 (3=B,FA (3B,FA (3B,FA (3B,EG | (3A,EG (3A,DF (3G,DF (3G,CE | %57
!<(! (3F,CD (3F,CD (3G,CD!<)!!>(! (3A,CD!>)! |!p! (3G,CE (3G,CE (3F,^B,D (3F,B,D | %59
 (3E,G,C (3G,CE (3G,CE (3G,CE | (3G,DF (3G,DF (3G,DF (3G,DF |!<(! (3G,EC (3GEc (3Gec (3gec!<)! | %62
!>(! (3^BdA (3BFA[K:bass] (3DFA,- (3A,G,F,!>)! |!<(! (3[E,C]E[K:treble]C (3GEc (3Gec (3gec!<)! | %64
!>(! (3^BdA (3BFA[K:bass] (3DFA,- (3A,G,F,!>)! |"_dim." (3[E,C]G,C (3ECG, (3z E,G, (3CG,E, | %66
 (3z C,E, (3G,E,C,[I:staff +1] (3G,,C,G,, (3E,,G,,E,, |[I:staff -1] z4 [E,G,C]4 | %68
 !fermata![E,G,C]8 |] %69
V:2
"^sempre pp e senza sordino"!ped! [C,,C,]8!ped-up! |!ped! [B,,,B,,]8!ped-up! | %2
!ped! [A,,,A,,]4!ped-up!!ped! [F,,,F,,]4!ped-up! | %3
!ped! [G,,,G,,]4!ped-up!!ped! [G,,,G,,]4!ped-up! |!ped! [C,,G,,C,]8!ped-up! | %5
!ped! [^B,,,G,,^B,,]8!ped-up! |!ped! [C,,C,]4!ped-up!!ped! [F,,,F,,]4!ped-up! | %7
!ped! [B,,,B,,]4!ped-up!!ped! [B,,,B,,]4!ped-up! |!ped! [E,,E,]8!ped-up! |!ped! [E,,E,]8!ped-up! | %10
!ped! [=D,,=D,]8!ped-up! |!ped! [=C,,=C,]2 [B,,,B,,]2!ped-up!!ped! [^A,,,^A,,]4!ped-up! | %12
!ped! [B,,,B,,]4!ped-up!!ped! E,,2 =G,,2!ped-up! |!ped! F,,4!ped-up!!ped! [F,,,F,,]4!ped-up! | %14
!ped! [B,,,B,,]8- | [B,,,B,,]2!ped-up!!ped! [E,,E,]2 [=G,,=G,]2 [E,,E,]2!ped-up! | %16
!ped! [B,,,B,,]8- | [B,,,B,,]2!ped-up!!ped! [E,,E,]2 [=G,,=G,]2 [E,,E,]2!ped-up! | %18
!ped! [B,,,B,,]4!ped-up!!ped! [G,,,G,,]4!ped-up! | %19
!ped! [^E,,,^E,,]4!ped-up!!ped! [F,,,F,,]4!ped-up! | %20
!ped! [B,,,B,,]4!ped-up!!ped! [^B,,,^B,,]4!ped-up! |!ped! C,,4!ped-up!!ped! C,,4!ped-up! | %22
!ped! [F,,,C,,F,,]8!ped-up! |!ped! [^E,,C,^E,]8!ped-up! | %24
!ped! [F,,F,]4!ped-up!!ped! [D,,D,]2 [C,,C,]2!ped-up! | %25
!ped! [^B,,,G,,^B,,]6!ped-up!!ped! [B,,,G,,B,,]2!ped-up! | %26
!ped! [C,,G,,C,]4!ped-up!!ped! [F,,,F,,]2 [^^F,,,^^F,,]2!ped-up! |!ped! [G,,,G,,]8!ped-up! | %28
!ped! [G,,,G,,]8!ped-up! |!ped! [G,,,G,,]8!ped-up! |!ped! [G,,,G,,]8!ped-up! | %31
!ped! [G,,,G,,]8!ped-up! |!ped! [G,,,G,,]8!ped-up! |!ped! [G,,,G,,]8!ped-up! | %34
!ped! [G,,,G,,]8-!ped-up! |!ped! [G,,,G,,]8-!ped-up! |!ped! [G,,,G,,]8!ped-up! | %37
!ped! [G,,,G,,]8!ped-up! |!ped! [G,,,G,,]8!ped-up! | %39
!ped! [G,,,G,,]4!ped-up!!ped! [A,,,A,,]4!ped-up! | %40
!ped! [F,,,F,,]4!ped-up!!ped! [G,,,G,,]4!ped-up! |!ped! [C,,G,,C,]8!ped-up! | %42
!ped! [^B,,,G,,^B,,]8!ped-up! |!ped! [C,,C,]4!ped-up!!ped! [F,,,F,,]4!ped-up! | %44
!ped! [B,,,B,,]4!ped-up!!ped! [B,,,B,,]4!ped-up! |!ped! [E,,E,]8!ped-up! |!ped! [D,,D,]8!ped-up! | %47
!ped! [E,,E,]4!ped-up!!ped! [D,,D,]2 [C,,C,]2!ped-up! | %48
!ped! [^B,,,G,,^B,,]4!ped-up!!ped! [C,,G,,C,]4!ped-up! | %49
!ped! [F,,,F,,]4!ped-up!!ped! [G,,,G,,]4!ped-up! |!ped! [C,,C,]8- | %51
 [C,,C,]2!ped-up!!ped! [F,,F,]2 [A,,A,]2 [F,,F,]2!ped-up! |!ped! [C,,C,]8- | %53
 [C,,C,]2!ped-up!!ped! [F,,F,]2 [A,,A,]2 [F,,F,]2!ped-up! | %54
!ped! [C,,C,]4!ped-up!!ped! [F,,,F,,]4!ped-up! |!ped! [D,,D,]6!ped-up!!ped! [E,,E,]2!ped-up! | %56
!ped! [C,,C,]2 [D,,D,]2!ped-up!!ped! [^B,,,^B,,]2 [C,,C,]2!ped-up! | %57
!ped! [A,,,A,,]4!ped-up!!ped! [G,,,G,,]2 [F,,,F,,]2!ped-up! | %58
!ped! [G,,,G,,]4!ped-up!!ped! [G,,,G,,]4!ped-up! |!pp!!ped! C,,8!ped-up! |!ped! ^B,,,8!ped-up! | %61
!ped! C,,8!ped-up! |!ped! G,,,8!ped-up! |!ped! C,,8!ped-up! |!ped! G,,,8!ped-up! |!ped! C,,8- | %66
!ped! C,,8!ped-up! |!pp!!ped! C,,4!ped-up!!ped! [C,,G,,C,]4!ped-up! | %68
!ped! !fermata![C,,G,,C,]8!ped-up! |] %69
V:3
 x8 | x8 | x8 | x8 | x6 G>G | G6 G>G | G4 A4 | G4 F2 B2 | E2 x6 | x6 =G>G | =G6 G>G | =G6 F2 | %12
 F4 =G2 E2 | F4 F4 | B,2 x4 B2 | =c6 ^A2 | B6 B2 | =c6 ^A2 | B4 B4 | B4 A4 | =G4 F4 | %21
[K:bass] C4 C2 C2 | F,2[K:treble] x4 c>c | c6 c>c | c4 ^B2 c2 | d6 d2 | e4 d2 c2 | x2 G2 A2 F2 | %28
 x2[I:staff +1] G,2 A,2 F,2 | x2[I:staff -1] c2 e2 c2 | x2[I:staff +1] C2 E2 C2 | x8 | x8 | x8 | %34
 x8 | x8 | x2[I:staff -1][K:bass] x2 (3:2:2A, D,2 C,2 | ^B,,4 D,2 C,2 | ^B,,4 =D,2 C,2 | ^B,,4 x4 | %40
 x8 | x2[K:treble] x4 G>G | G6 G>G | G4 A4 | G4 F2 B2 | E2 x4 B>B | B6 B>B | B4 ^B2 c2 | d4 e4 | %49
 =d4 ^B4 | c6 c2 | =d6 ^B2 | c6 c2 | =d6 ^B2 | c4 c4 | =B6 B2 | A2 A2 G2 G2 | F4 G2 A2 | G4 G4 | %59
 C2 x6 | x8 | x8 | x4[K:bass] x2 ^B,2 | x4/3[K:treble] x20/3 | x4[K:bass] x2 ^B,2 | x8 | x8 | x8 | %68
 x8 |] %69
V:4
 x8 | x8 | x8 | x8 | x8 | x8 | x8 | x8 | x8 | x8 | x8 | x8 | x8 | x8 | x8 | x8 | x8 | x8 | x8 | %19
 x8 | x8 | x8 | x8 | x8 | x8 | x8 | x8 | x8 | x8 | x8 | x8 | x8 | x8 | x8 | x8 | x8 | x8 | x8 | %38
 x8 | x8 | x8 | x8 | x8 | x8 | x8 | x8 | x8 | x8 | x8 | x8 | x8 | x8 | x8 | x8 | x8 | x8 | x8 | %57
 x8 | x8 | G,,6 G,,>G,, | G,,6 G,,>G,, | G,,6 G,,>G,, | G,,6 G,,>G,, | G,,6 G,,>G,, | %64
 G,,6 G,,>G,, | G,,4 C,4 | G,,4 x4 | x8 | x8 |] %69

